img/insight_driven_benchmarking_colour.svg

<svg height="107" viewBox="0 0 500 107" width="500" xmlns="http://www.w3.org/2000/svg"><g fill="none"><g fill="#1a7a57" transform="translate(140.776243)"><path d="m359.129781 80.7724838c-4.228926-3.4301288-9.303637-5.2626633-13.908467-5.2626633-9.068697 0-16.163895 6.9542336-16.163895 15.5530495 0 8.645804 7.001222 15.55305 16.398835 15.55305 4.60483 0 9.914482-1.738559 13.767503-4.604831v-13.156658h-14.895216v5.3096513h8.833756v4.9337469c-1.832535 1.2686778-4.792783 1.9734988-7.471103 1.9734988-6.578329 0-9.961469-4.8397708-9.961469-9.9614699 0-5.4976036 3.900009-10.0084579 9.538577-10.0084579 3.054224 0 7.04821 1.3626539 9.632553 3.6650691zm-39.704915-4.3698901v18.1843812h-.046988l-14.942205-18.1843812h-5.544591v29.3205523h6.484353v-18.1373928h.046988l14.942204 18.1373928h5.59158v-29.3205523zm-26.21934 0h-6.437365v29.3205523h6.437365zm-31.059111 0h-6.484353v29.3205523h6.484353v-9.2096604l4.698806-4.4638662 10.854243 13.6735266h8.175924l-14.425336-17.8554644 12.216897-11.4650879h-8.081948l-13.438586 12.7807537zm-21.426558 5.4506156c1.174702 0 2.490368.1409642 3.524105 1.2686777.657833.657833 1.033737 1.5506062 1.033737 2.5843436 0 2.2554271-1.832534 3.8530214-4.087961 3.8530214h-10.525327v-7.7060427zm-10.055446 23.9169247v-10.8072546h8.692792l5.920496 10.8072546h7.377127l-6.860258-11.840992c3.618081-1.5506061 5.920496-4.5108542 5.920496-8.2698994 0-2.3494033-.892773-4.4638662-2.443379-6.0614604-1.879523-1.9734988-4.651818-3.1951885-8.786768-3.1951885h-16.257871v29.3205523h6.437365zm-24.668734-21.6614976h.281928l4.416879 10.3373743h-9.162673zm-16.069918 21.6614976h6.766281l2.631332-6.2024242h13.579551l2.678319 6.2024242h7.04821l-13.626539-29.3205522h-5.544591zm-1.597594 0v-29.3205522h-5.967485l-9.585565 16.0699182h-.093976l-9.632553-16.0699182h-6.155437v29.3205522h6.249413v-17.0096792h.23494l8.222911 13.7205152h1.785547l8.222911-13.7205152h.234941v17.0096792zm-57.372428 0v-13.0156936h13.861479v13.0156936h6.484353v-29.3205522h-6.484353v10.854243h-13.861479v-10.854243h-6.484353v29.3205522zm-12.780753-9.3036365c-2.584344 2.5843436-6.296401 4.6518185-10.290387 4.6518185-6.06146 0-9.9614695-4.5108543-9.9614695-10.0084579s3.8060335-10.0084579 9.7735175-10.0084579c3.1482 0 6.907246 1.4566301 9.632553 3.7590452l4.040974-4.2289258c-3.524105-3.0072362-8.786768-5.1216991-14.190396-5.1216991-9.4915888 0-15.9289537 7.0951978-15.9289537 15.5530495 0 8.645804 6.4373649 15.600038 16.1638947 15.600038 6.437365 0 11.559064-2.866272 14.942204-6.014473zm-36.6506912-20.0639038v18.1843812h-.046988l-14.9422047-18.1843812h-5.5445917v29.3205523h6.484353v-18.1373928h.0469881l14.8952166 18.1373928h5.5915797v-29.3205523zm-31.6229677 11.2771356h-10.807255v-5.6855558h17.9964289v-5.5915798h-24.4337938v29.3205523h25.4675312v-5.544591h-19.0301663v-7.001222h10.807255zm-33.0795978-5.9204961c1.45663 0 2.3024152.3289164 2.91326.9867493.5168687.5168687.8927732 1.2686778.8927732 2.1144629 0 .8927733-.3759045 1.7385585-.9867493 2.3963914-.6578329.6578329-1.5975942.9397613-2.8192839.9397613h-10.33737433v-6.4373649zm1.0807255 11.2771356c1.4096419 0 2.4433794.4698806 3.2421765 1.2686777.6108448.6578329 1.0337374 1.5506062 1.0337374 2.4903675s-.4228926 1.8795226-1.0337374 2.5843435c-.7518091.7048215-1.8795226 1.1277135-3.2421765 1.1277135h-11.41809983v-7.4711022zm.2349403 12.7337652c3.9939855 0 6.2024246-.939761 7.9879711-2.631331 1.8325345-1.785547 2.7253077-3.9469977 2.7253077-6.296401 0-3.4301287-1.8325345-6.1084484-5.2626633-7.28315 2.161451-1.1277136 3.6650691-3.3831407 3.6650691-5.8735082 0-1.6445823-.6578329-3.1951884-1.8325345-4.4168781-1.5975942-1.6915703-4.2289259-2.8192839-7.8470069-2.8192839h-17.5735363v29.3205522z"/><path d="m155.060615 38.6241895v18.2313692h-.046988l-14.942205-18.1843812h-5.544592v29.3205526h6.484353v-18.1373931h.046988l14.942205 18.1373931h5.59158v-29.3675406zm-31.622968 11.2771356h-10.807255v-5.6855559h17.996429v-5.5915797h-24.433794v29.3205525h25.467531v-5.5445916h-19.030166v-6.9542337h10.807255zm-25.7024717-11.2771356-9.1156847 21.2855934h-.2819283l-9.1156847-21.2855934h-7.28315l13.6265388 29.3205525h5.5915798l13.6265388-29.3205525zm-27.2060897 0h-6.4373649v29.3205525h6.4373649zm-21.4265576 5.4506155c1.1747016 0 2.4903674.1409642 3.5241048 1.2686778.6578329.6578329 1.0337375 1.5506061 1.0337375 2.5843435 0 2.2554272-1.8325346 3.8530214-4.0879617 3.8530214h-10.5253266v-7.7060427zm-10.055446 23.9169251v-10.807255h8.7397801l5.9204962 10.807255h7.3771262l-6.8602575-11.8409924c3.571093-1.5506061 5.9204962-4.5108542 5.9204962-8.2698994 0-2.3494033-.8927732-4.4638662-2.4433793-6.0614604-1.8795226-1.9734988-4.6518185-3.1951884-8.7867682-3.1951884h-16.3048586v29.3205525h6.4373649zm-32.60971709-5.5445917v-18.2313692h7.14218589c3.4771168 0 5.027723.8457852 6.531341 2.3494032 1.5975942 1.6445823 2.4903675 3.9939856 2.4903675 6.7662814 0 2.9602481-.9867494 5.3096514-2.6783197 7.0012217-1.5506062 1.3626539-2.9132601 2.1144629-6.2964007 2.1144629zm7.37712619 5.5445917c5.5445917 0 8.7397801-1.5036181 11.2301476-3.8530213 2.7253077-2.6783197 4.2289258-6.5783291 4.2289258-10.807255 0-4.1349497-1.4096419-7.8000188-3.9469974-10.4783385-2.5843436-2.6313316-6.1084485-4.1819378-11.512076-4.1819378h-13.8144911v29.3205526z"/><path d="m147.448548 6.43736491h10.619303v23.77596089h6.437365v-23.77596089h10.619302v-5.54459167h-27.67597zm-22.507283 23.77596089v-13.015694h13.861479v13.015694h6.484353v-29.32055256h-6.484353v10.85424306h-13.861479v-10.85424306h-6.484353v29.32055256zm-11.277136-24.95066252c-4.228926-3.43012874-9.303637-5.26266328-13.9084669-5.26266328-9.0686966 0-16.1638944 6.95423362-16.1638944 15.5530495 0 8.645804 7.0012217 15.5530496 16.3988347 15.5530496 4.6048306 0 9.9144816-1.7385585 13.7675026-4.6048304v-13.1566582h-14.8952162v5.3096513h8.8337562v4.9337468c-1.832534 1.2686778-4.792783 1.9734988-7.471102 1.9734988-6.5783294 0-9.9614701-4.8397707-9.9614701-9.9614698 0-5.4976036 3.9000094-10.00845786 9.5385772-10.00845786 3.0542239 0 7.0482099 1.36265388 9.6325529 3.66506907zm-33.2675497-4.36989004h-6.4373649v29.32055256h6.4373649zm-11.1831595 3.05422422c-2.5373555-1.69157034-7.7060427-3.94699746-13.8144911-3.94699746-5.5445917 0-12.1229208 2.20843906-12.1229208 9.30363688 0 7.47110232 7.5650785 8.17592332 13.9554553 8.59881592 4.4168781.3759045 7.4241143.9867493 7.4241143 3.8060332 0 2.7253078-2.9602481 4.1819378-6.6723053 4.1819378-5.9204961 0-10.1024339-2.9602481-12.5928014-4.9337468l-3.618081 4.4168781c3.4301288 2.7722959 8.5518278 5.779532 16.1169063 5.779532 7.189174 0 13.2036463-2.8192839 13.2036463-10.0554459 0-8.0819472-8.3638756-8.7397801-13.720515-9.0686966-3.8060333-.3289164-7.7060427-.5168687-7.7060427-3.10121224 0-2.53735552 2.5843436-3.57109295 5.5445917-3.57109295 4.8397707 0 8.5518278 1.83253454 10.2903863 3.14820036zm-36.6037027-3.05422422v18.18438116l-14.9422046-18.18438116h-5.5445917v29.32055256h6.484353v-18.1373931h.046988l14.8952166 18.1373931h5.5915798v-29.32055256zm-26.17235219 0h-6.43736491v29.32055256h6.43736491z"/></g><path d="m19.359083 46.800113h54.929048v12.310873h-54.929048z" fill="#29ba73"/><path d="m19.359083.187952h98.815901v12.310873h-98.815901z" fill="#1a7a57"/><path d="m0 23.494033h44.356733v12.310873h-44.356733z" fill="#50a072"/><path d="m10.572315 70.106193h44.356733v12.310873h-44.356733z" fill="#c9e8c9"/><path d="m19.359083 93.459261h109.76412v12.310873h-109.76412z" fill="#1a7a57"/></g></svg>

<?xml version="1.0" encoding="UTF-8"?>
<svg width="500px" height="107px" viewBox="0 0 500 107" version="1.1" xmlns="http://www.w3.org/2000/svg" xmlns:xlink="http://www.w3.org/1999/xlink">
    <title>Expand_WEB_Homepage_INSIGHT DRIVEN BENCHMARKING_sub-logo_Colour</title>
    <g id="Page-1" stroke="none" stroke-width="1" fill="none" fill-rule="evenodd">
        <g id="Expand_WEB_Homepage_INSIGHT-DRIVEN-BENCHMARKING_sub-logo_Colour" fill-rule="nonzero">
            <g id="Group" transform="translate(140.776243, 0.000000)" fill="#1A7A57">
                <path d="M359.129781,80.7724838 C354.900855,77.342355 349.826144,75.5098205 345.221314,75.5098205 C336.152617,75.5098205 329.057419,82.4640541 329.057419,91.06287 C329.057419,99.708674 336.058641,106.61592 345.456254,106.61592 C350.061084,106.61592 355.370736,104.877361 359.223757,102.011089 L359.223757,88.854431 L344.328541,88.854431 L344.328541,94.1640823 L353.162297,94.1640823 L353.162297,99.0978292 C351.329762,100.366507 348.369514,101.071328 345.691194,101.071328 C339.112865,101.071328 335.729725,96.2315572 335.729725,91.1098581 C335.729725,85.6122545 339.629734,81.1014002 345.268302,81.1014002 C348.322526,81.1014002 352.316512,82.4640541 354.900855,84.7664693 L359.129781,80.7724838 Z M319.424866,76.4025937 L319.424866,94.5869749 L319.377878,94.5869749 L304.435673,76.4025937 L298.891082,76.4025937 L298.891082,105.723146 L305.375435,105.723146 L305.375435,87.5857532 L305.422423,87.5857532 L320.364627,105.723146 L325.956207,105.723146 L325.956207,76.4025937 L319.424866,76.4025937 L319.424866,76.4025937 Z M293.205526,76.4025937 L286.768161,76.4025937 L286.768161,105.723146 L293.205526,105.723146 L293.205526,76.4025937 Z M262.146415,76.4025937 L255.662062,76.4025937 L255.662062,105.723146 L262.146415,105.723146 L262.146415,96.5134856 L266.845221,92.0496194 L277.699464,105.723146 L285.875388,105.723146 L271.450052,87.8676816 L283.666949,76.4025937 L275.585001,76.4025937 L262.146415,89.1833474 L262.146415,76.4025937 Z M240.719857,81.8532093 C241.894559,81.8532093 243.210225,81.9941735 244.243962,83.121887 C244.901795,83.77972 245.277699,84.6724932 245.277699,85.7062306 C245.277699,87.9616577 243.445165,89.559252 241.189738,89.559252 L230.664411,89.559252 L230.664411,81.8532093 L240.719857,81.8532093 L240.719857,81.8532093 Z M230.664411,105.770134 L230.664411,94.9628794 L239.357203,94.9628794 L245.277699,105.770134 L252.654826,105.770134 L245.794568,93.929142 C249.412649,92.3785359 251.715064,89.4182878 251.715064,85.6592426 C251.715064,83.3098393 250.822291,81.1953764 249.271685,79.5977822 C247.392162,77.6242834 244.619867,76.4025937 240.484917,76.4025937 L224.227046,76.4025937 L224.227046,105.723146 L230.664411,105.723146 L230.664411,105.770134 Z M205.995677,84.1086364 L206.277605,84.1086364 L210.694484,94.4460107 L201.531811,94.4460107 L205.995677,84.1086364 Z M189.925759,105.770134 L196.69204,105.770134 L199.323372,99.5677098 L212.902923,99.5677098 L215.581242,105.770134 L222.629452,105.770134 L209.002913,76.4495818 L203.458322,76.4495818 L189.925759,105.770134 Z M188.328165,105.770134 L188.328165,76.4495818 L182.36068,76.4495818 L172.775115,92.5195 L172.681139,92.5195 L163.048586,76.4495818 L156.893149,76.4495818 L156.893149,105.770134 L163.142562,105.770134 L163.142562,88.7604548 L163.377502,88.7604548 L171.600413,102.48097 L173.38596,102.48097 L181.608871,88.7604548 L181.843812,88.7604548 L181.843812,105.770134 L188.328165,105.770134 L188.328165,105.770134 Z M130.955737,105.770134 L130.955737,92.7544404 L144.817216,92.7544404 L144.817216,105.770134 L151.301569,105.770134 L151.301569,76.4495818 L144.817216,76.4495818 L144.817216,87.3038248 L130.955737,87.3038248 L130.955737,76.4495818 L124.471384,76.4495818 L124.471384,105.770134 L130.955737,105.770134 Z M118.174984,96.4664975 C115.59064,99.0508411 111.878583,101.118316 107.884597,101.118316 C101.823137,101.118316 97.9231275,96.6074617 97.9231275,91.1098581 C97.9231275,85.6122545 101.729161,81.1014002 107.696645,81.1014002 C110.844845,81.1014002 114.603891,82.5580303 117.329198,84.8604454 L121.370172,80.6315196 C117.846067,77.6242834 112.583404,75.5098205 107.179776,75.5098205 C97.6881872,75.5098205 91.2508223,82.6050183 91.2508223,91.06287 C91.2508223,99.708674 97.6881872,106.662908 107.414717,106.662908 C113.852082,106.662908 118.973781,103.796636 122.356921,100.648435 L118.174984,96.4664975 Z M81.5242928,76.4025937 L81.5242928,94.5869749 L81.4773048,94.5869749 L66.5351001,76.4025937 L60.9905084,76.4025937 L60.9905084,105.723146 L67.4748614,105.723146 L67.4748614,87.5857532 L67.5218495,87.5857532 L82.4170661,105.723146 L88.0086458,105.723146 L88.0086458,76.4025937 L81.5242928,76.4025937 L81.5242928,76.4025937 Z M49.9013251,87.6797293 L39.0940701,87.6797293 L39.0940701,81.9941735 L57.090499,81.9941735 L57.090499,76.4025937 L32.6567052,76.4025937 L32.6567052,105.723146 L58.1242364,105.723146 L58.1242364,100.178555 L39.0940701,100.178555 L39.0940701,93.177333 L49.9013251,93.177333 L49.9013251,87.6797293 Z M16.8217273,81.7592332 C18.2783573,81.7592332 19.1241425,82.0881496 19.7349873,82.7459825 C20.251856,83.2628512 20.6277605,84.0146603 20.6277605,84.8604454 C20.6277605,85.7532187 20.251856,86.5990039 19.6410112,87.2568368 C18.9831783,87.9146697 18.043417,88.1965981 16.8217273,88.1965981 L6.48435297,88.1965981 L6.48435297,81.7592332 L16.8217273,81.7592332 Z M17.9024528,93.0363688 C19.3120947,93.0363688 20.3458322,93.5062494 21.1446293,94.3050465 C21.7554741,94.9628794 22.1783667,95.8556527 22.1783667,96.795414 C22.1783667,97.7351753 21.7554741,98.6749366 21.1446293,99.3797575 C20.3928202,100.084579 19.2651067,100.507471 17.9024528,100.507471 L6.48435297,100.507471 L6.48435297,93.0363688 L17.9024528,93.0363688 Z M18.1373931,105.770134 C22.1313786,105.770134 24.3398177,104.830373 26.1253642,103.138803 C27.9578987,101.353256 28.8506719,99.1918053 28.8506719,96.842402 C28.8506719,93.4122733 27.0181374,90.7339536 23.5880086,89.559252 C25.7494596,88.4315384 27.2530777,86.1761113 27.2530777,83.6857438 C27.2530777,82.0411615 26.5952448,80.4905554 25.4205432,79.2688657 C23.822949,77.5772954 21.1916173,76.4495818 17.5735363,76.4495818 L0,76.4495818 L0,105.770134 L18.1373931,105.770134 Z" id="Shape"></path>
                <path d="M155.060615,38.6241895 L155.060615,56.8555587 L155.013627,56.8555587 L140.071422,38.6711775 L134.52683,38.6711775 L134.52683,67.9917301 L141.011183,67.9917301 L141.011183,49.854337 L141.058171,49.854337 L156.000376,67.9917301 L161.591956,67.9917301 L161.591956,38.6241895 L155.060615,38.6241895 Z M123.437647,49.9013251 L112.630392,49.9013251 L112.630392,44.2157692 L130.626821,44.2157692 L130.626821,38.6241895 L106.193027,38.6241895 L106.193027,67.944742 L131.660558,67.944742 L131.660558,62.4001504 L112.630392,62.4001504 L112.630392,55.4459167 L123.437647,55.4459167 L123.437647,49.9013251 Z M97.7351753,38.6241895 L88.6194906,59.9097829 L88.3375623,59.9097829 L79.2218776,38.6241895 L71.9387276,38.6241895 L85.5652664,67.944742 L91.1568462,67.944742 L104.783385,38.6241895 L97.7351753,38.6241895 L97.7351753,38.6241895 Z M70.5290856,38.6241895 L64.0917207,38.6241895 L64.0917207,67.944742 L70.5290856,67.944742 L70.5290856,38.6241895 Z M49.102528,44.074805 C50.2772296,44.074805 51.5928954,44.2157692 52.6266328,45.3434828 C53.2844657,46.0013157 53.6603703,46.8940889 53.6603703,47.9278263 C53.6603703,50.1832535 51.8278357,51.7808477 49.5724086,51.7808477 L39.047082,51.7808477 L39.047082,44.074805 L49.102528,44.074805 L49.102528,44.074805 Z M39.047082,67.9917301 L39.047082,57.1844751 L47.7868621,57.1844751 L53.7073583,67.9917301 L61.0844845,67.9917301 L54.224227,56.1507377 C57.79532,54.6001316 60.1447232,51.6398835 60.1447232,47.8808383 C60.1447232,45.531435 59.25195,43.4169721 57.7013439,41.8193779 C55.8218213,39.8458791 53.0495254,38.6241895 48.9145757,38.6241895 L32.6097171,38.6241895 L32.6097171,67.944742 L39.047082,67.944742 L39.047082,67.9917301 Z M6.43736491,62.4471384 L6.43736491,44.2157692 L13.5795508,44.2157692 C17.0566676,44.2157692 18.6072738,45.0615544 20.1108918,46.5651724 C21.708486,48.2097547 22.6012593,50.559158 22.6012593,53.3314538 C22.6012593,56.2917019 21.6145099,58.6411052 19.9229396,60.3326755 C18.3723334,61.6953294 17.0096795,62.4471384 13.6265389,62.4471384 L6.43736491,62.4471384 Z M13.8144911,67.9917301 C19.3590828,67.9917301 22.5542712,66.488112 25.0446387,64.1387088 C27.7699464,61.4603891 29.2735645,57.5603797 29.2735645,53.3314538 C29.2735645,49.1965041 27.8639226,45.531435 25.3265671,42.8531153 C22.7422235,40.2217837 19.2181186,38.6711775 13.8144911,38.6711775 L-2.67096226e-14,38.6711775 L-2.67096226e-14,67.9917301 L13.8144911,67.9917301 Z" id="Shape"></path>
                <path d="M147.448548,6.43736491 L158.067851,6.43736491 L158.067851,30.2133258 L164.505216,30.2133258 L164.505216,6.43736491 L175.124518,6.43736491 L175.124518,0.892773236 L147.448548,0.892773236 L147.448548,6.43736491 L147.448548,6.43736491 Z M124.941265,30.2133258 L124.941265,17.1976318 L138.802744,17.1976318 L138.802744,30.2133258 L145.287097,30.2133258 L145.287097,0.892773236 L138.802744,0.892773236 L138.802744,11.7470163 L124.941265,11.7470163 L124.941265,0.892773236 L118.456912,0.892773236 L118.456912,30.2133258 L124.941265,30.2133258 Z M113.664129,5.26266328 C109.435203,1.83253454 104.360492,-8.34675707e-16 99.7556621,-8.34675707e-16 C90.6869655,-8.34675707e-16 83.5917677,6.95423362 83.5917677,15.5530495 C83.5917677,24.1988535 90.5929894,31.1060991 99.9906024,31.1060991 C104.595433,31.1060991 109.905084,29.3675406 113.758105,26.5012687 L113.758105,13.3446105 L98.8628888,13.3446105 L98.8628888,18.6542618 L107.696645,18.6542618 L107.696645,23.5880086 C105.864111,24.8566864 102.903862,25.5615074 100.225543,25.5615074 C93.6472136,25.5615074 90.2640729,20.7217367 90.2640729,15.6000376 C90.2640729,10.102434 94.1640823,5.59157974 99.8026501,5.59157974 C102.856874,5.59157974 106.85086,6.95423362 109.435203,9.25664881 L113.664129,5.26266328 Z M80.3965793,0.892773236 L73.9592144,0.892773236 L73.9592144,30.2133258 L80.3965793,30.2133258 L80.3965793,0.892773236 Z M69.2134198,3.94699746 C66.6760643,2.25542712 61.5073771,-8.34675707e-16 55.3989287,-8.34675707e-16 C49.854337,-8.34675707e-16 43.2760079,2.20843906 43.2760079,9.30363688 C43.2760079,16.7747392 50.8410864,17.4795602 57.2314632,17.9024528 C61.6483413,18.2783573 64.6555775,18.8892021 64.6555775,21.708486 C64.6555775,24.4337938 61.6953294,25.8904238 57.9832722,25.8904238 C52.0627761,25.8904238 47.8808383,22.9301757 45.3904708,20.956677 L41.7723898,25.3735551 C45.2025186,28.145851 50.3242176,31.1530871 57.8892961,31.1530871 C65.0784701,31.1530871 71.0929424,28.3338032 71.0929424,21.0976412 C71.0929424,13.015694 62.7290668,12.3578611 57.3724274,12.0289446 C53.5663941,11.7000282 49.6663847,11.5120759 49.6663847,8.92773236 C49.6663847,6.39037684 52.2507283,5.35663941 55.2109764,5.35663941 C60.0507471,5.35663941 63.7628042,7.18917395 65.5013627,8.50483977 L69.2134198,3.94699746 Z M32.6097171,0.892773236 L32.6097171,19.0771544 L32.6097171,19.0771544 L17.6675125,0.892773236 L12.1229208,0.892773236 L12.1229208,30.2133258 L18.6072738,30.2133258 L18.6072738,12.0759327 L18.6542618,12.0759327 L33.5494784,30.2133258 L39.1410582,30.2133258 L39.1410582,0.892773236 L32.6097171,0.892773236 Z M6.43736491,0.892773236 L-2.67096226e-14,0.892773236 L-2.67096226e-14,30.2133258 L6.43736491,30.2133258 L6.43736491,0.892773236 Z" id="Shape"></path>
            </g>
            <rect id="Rectangle" fill="#29BA73" x="19.3590828" y="46.8001128" width="54.929048" height="12.310873"></rect>
            <rect id="Rectangle" fill="#1A7A57" x="19.3590828" y="0.18795226" width="98.8159008" height="12.310873"></rect>
            <rect id="Rectangle" fill="#50A072" x="0" y="23.4940325" width="44.3567334" height="12.310873"></rect>
            <rect id="Rectangle" fill="#C9E8C9" x="10.5723146" y="70.106193" width="44.3567334" height="12.310873"></rect>
            <rect id="Rectangle" fill="#1A7A57" x="19.3590828" y="93.4592613" width="109.76412" height="12.310873"></rect>
        </g>
    </g>
</svg>
